X: 272
T:Squirrel in the Tree
C:Trad.
M:6/8
R:jig
L:1/8
K:G
A|:"G"BBB B2B|B2A GAB|"C"ccc c2B|c2d efg|
"D"fff fff|fed cBA|1 "G"GBd "D"ded|"G"B3 Bdc:|2 "G"GBd "D"bfa|"G"g3 d2|
|:g|"G"bbb b2b|b2a "C"gfe|"G"ddd d2e|d2c Bdg|
"D"fff fff|fed cBA|1 "G"GBd "D"e2d|"G"B3 Bd:|2 "G"GBd "D"bfa|"G"g3 g2|]
